X:1     %Music
T:The Gipsy
B:Singing Together, Spring 1986, BBC Publications
F:http://www.folkinfo.org/songs
M:6/8     %Meter
L:1/8     %
K:C
D2 D A2 A |(GF)E D3 |A2 A e2 e |(dc)d e e2 |
w:I'm the gip-sy of_ the vale, Car-a-van a-mong_ the moun-tains, 
A2 A e2 e |(dc)B A A2 |d2 d A2 B |c2 B A3 |
w:Ev-'ry day a new_ en-camp-ment, On the banks be-side the stream. 
d2 d A B2 |c2 B A3 |d3 A3 |(GF)E D3 |]
w:Win-ter, sum-mer what care I, Heigh ho, heigh--de-ho. 